src/assets/images/icons/svg/iconw_shotgun.svg

<svg width="512" height="512" version="1.1" viewBox="0 0 512 512" xmlns="http://www.w3.org/2000/svg">
 <path d="m29.02 45.02v261.96h101.96v-261.96h-101.96zm176 0v261.96h101.96v-261.96h-101.96zm176 0v261.96h101.96v-261.96h-101.96z" style="fill:none;opacity:.987;stroke-width:26.04;stroke:#ff7d00"/>
 <path d="m16 320v96h128v-96h-128zm176 0v96h128v-96h-128zm176 0v96h128v-96h-128zm-352 112v32h128v-32h-128zm176 0v32h128v-32h-128zm176 0v32h128v-32h-128z" style="fill:#ff7d00;opacity:.987"/>
</svg>

<svg xmlns="http://www.w3.org/2000/svg" viewBox="0 0 512 512"><path d="M29.02 45.02v261.96h101.96V45.02H29.02zm176 0v261.96h101.96V45.02H205.02zm176 0v261.96h101.96V45.02H381.02z" fill="none" opacity=".987" stroke-width="26.04" stroke="#ff7d00"/><path d="M16 320v96h128v-96H16zm176 0v96h128v-96H192zm176 0v96h128v-96H368zM16 432v32h128v-32H16zm176 0v32h128v-32H192zm176 0v32h128v-32H368z" fill="#ff7d00" opacity=".987"/></svg>
